images/briefcase.svg

<svg enable-background="new 0 0 511.626 511.627" height="512" viewBox="0 0 511.626 511.627" width="512" xmlns="http://www.w3.org/2000/svg"><g fill="#a0abbf"><path d="m319.77 338.039c0 4.949-1.811 9.236-5.424 12.847-3.617 3.621-7.902 5.428-12.851 5.428h-91.361c-4.952 0-9.233-1.807-12.85-5.428-3.616-3.61-5.424-7.897-5.424-12.847v-45.679h-191.86v137.044c0 12.56 4.471 23.312 13.418 32.257 8.945 8.946 19.701 13.419 32.264 13.419h420.266c12.56 0 23.315-4.473 32.261-13.419 8.949-8.945 13.418-19.697 13.418-32.257v-137.044h-191.857z"/><path d="m219.266 292.36h73.096v36.545h-73.096z"/><path d="m498.208 123.054c-8.945-8.947-19.701-13.418-32.261-13.418h-100.501v-45.683c0-7.614-2.663-14.084-7.994-19.414-5.325-5.327-11.8-7.993-19.411-7.993h-164.452c-7.612 0-14.083 2.666-19.414 7.993s-7.994 11.799-7.994 19.414v45.683h-100.499c-12.562 0-23.318 4.471-32.264 13.418-8.947 8.946-13.418 19.696-13.418 32.259v109.636h511.626v-109.636c0-12.563-4.468-23.313-13.418-32.259zm-169.304-13.418h-146.179v-36.547h146.179z"/></g></svg>

<?xml version="1.0"?>
<svg xmlns="http://www.w3.org/2000/svg" xmlns:xlink="http://www.w3.org/1999/xlink" version="1.1" id="Capa_1" x="0px" y="0px" width="512px" height="512px" viewBox="0 0 511.626 511.627" style="enable-background:new 0 0 511.626 511.627;" xml:space="preserve" class=""><g><g>
	<g>
		<path d="M319.77,338.039c0,4.949-1.811,9.236-5.424,12.847c-3.617,3.621-7.902,5.428-12.851,5.428h-91.361    c-4.952,0-9.233-1.807-12.85-5.428c-3.616-3.61-5.424-7.897-5.424-12.847V292.36H0v137.044c0,12.56,4.471,23.312,13.418,32.257    c8.945,8.946,19.701,13.419,32.264,13.419h420.266c12.56,0,23.315-4.473,32.261-13.419c8.949-8.945,13.418-19.697,13.418-32.257    V292.36H319.77V338.039L319.77,338.039z" data-original="#000000" class="active-path" data-old_color="#a0abbf" fill="#a0abbf"/>
		<rect x="219.266" y="292.36" width="73.096" height="36.545" data-original="#000000" class="active-path" data-old_color="#a0abbf" fill="#a0abbf"/>
		<path d="M498.208,123.054c-8.945-8.947-19.701-13.418-32.261-13.418H365.446V63.953c0-7.614-2.663-14.084-7.994-19.414    c-5.325-5.327-11.8-7.993-19.411-7.993H173.589c-7.612,0-14.083,2.666-19.414,7.993s-7.994,11.799-7.994,19.414v45.683H45.682    c-12.562,0-23.318,4.471-32.264,13.418C4.471,132,0,142.75,0,155.313v109.636h511.626V155.313    C511.626,142.75,507.158,132,498.208,123.054z M328.904,109.636H182.725V73.089h146.179V109.636z" data-original="#000000" class="active-path" data-old_color="#a0abbf" fill="#a0abbf"/>
	</g>
</g></g> </svg>
